app/assets/hero-1.svg

<svg height="962" viewBox="0 0 696 962" width="696" xmlns="http://www.w3.org/2000/svg"><g fill="none" fill-rule="evenodd" transform="matrix(.99026807 -.1391731 .1391731 .99026807 -112 -32.496558)"><path d="m20.5949327 85.8936811c-11.48589215-13.46987-19.25978421-29.9773814-17.96076228-48.4745219 3.74284388-53.2954124 77.99929938-41.57110068 92.44371728-14.6721532 14.4444183 26.8989475 12.7280453 95.130359-5.9400776 99.937951-7.4448218 1.917261-23.3045057-2.779261-39.4459638-12.499618l10.1316831 71.612738h-59.8235294z" fill="#915b3c" transform="matrix(.8480481 .52991926 -.52991926 .8480481 539.49249246273 137.25901300504)"/><path d="m237.815026 96.8801978c1.932245-1.913073 2.986238-4.6436625 3.897986-7.2364711.946851-2.6934185 1.866858-5.4145913 2.495492-8.2180363 1.256119-5.601438 1.26805-12.0431909-2.731573-16.3927061-3.207637-3.4878889-8.020583-5.0522969-12.462544-5.3922886-2.959395-.2267438-5.998861.1873424-8.835741 1.1190981-2.814626.9243216-5.24083 2.7665216-7.969421 3.9099049-.10416-6.03634-1.139111-12.3524546-4.204272-17.5066003-2.94953-4.9591213-7.652121-7.7419982-13.007666-8.478234-5.496871-.7555647-10.924915.5295644-15.845922 3.1882898-1.232029.6658584-2.452588 1.3634362-3.620607 2.1529505-.978053.6611501-1.994879 1.4573553-3.142479 1.7262263-1.279292.3000947-1.913432-.4381235-2.74488-1.3706227-.974841-1.0933261-2.073114-2.0563056-3.235397-2.9100021-5.139193-3.7741064-11.88209-5.3258762-17.835983-3.0636426-2.743274 1.0422778-5.410836 2.812366-7.271959 5.251534-1.658995 2.174262-2.842386 5.6232451-5.13208 7.1380917-.971629.6430601-1.657849-.2089017-2.542524-.8385802-1.328849-.9461286-2.596211-1.9901411-3.941119-2.9104977-1.889113-1.2930589-3.934466-2.2602512-6.124817-2.7665216-3.20649-.7411919-7.637667-.5674789-8.554463 3.6283957-.344142 1.5760549-.0803 3.2616407.030973 4.8495904.15257 2.1804572.311793 4.3601709.501301 6.5374066.143851 1.653123.325788 3.249746.63804 4.8731321.166565.8653434.687826 2.4785695.316382 3.3451519-.464134 1.083166-2.606306.4673647-3.521495.5050314-1.807665.07459-3.622902.3912879-5.294287 1.1629601-1.295352.598207-2.657238 1.4779232-3.203965 2.9612982-.336113.9111877-.247553 1.8471562-.088789 2.7846115.190425 1.1250455-.027302 1.7217657-.169548 2.8569713-2.42781-1.1944315-10.8409441-3.8482008-11.8995261.4988363-.3524018 1.4474429.4501383 3.0829716 1.0624823 4.3036708 1.0739537 2.1410558 2.481955 4.0979907 3.9213879 5.9642281 3.0025279 3.8933018 6.5871149 7.2513396 10.4438039 10.1231793-4.518589 2.0069925-5.69808 7.9268625-1.785869 11.4539055 1.727365 1.557221 4.049867 1.903904 6.228748 1.804285.797492-.036428 1.947157-.342718 2.574644-.203945.337718.07459.699297.360559 1.167101.392527 3.075027.210388 6.546277-.529813 9.552246-1.211531 5.356232-1.214752 10.427056-3.750069 14.568007-7.611404 1.062253-.990486 1.939816-1.56069 3.369613-1.54607 1.252908.012638 2.482184.355852 3.733945.387571 3.312026.084502 6.298265-1.533184 9.373751-2.6099074.18836 4.1510214 1.371522 8.7228194 3.071126 12.4572774 1.385976 3.045305 4.280214 3.487889 7.124207 3.755025 9.094536.854935 18.221193-.099123 27.327201-.086485-8.814864 1.990637-17.923625 2.811127-26.660253 5.15365-3.949149 1.058633-.933544 3.717854.755048 5.561294 2.780441 3.03564 4.84782 6.79686 6.281746 10.7593 4.312104-5.61581 11.933941-9.31607 18.686474-7.590835 7.461007 1.905886 12.714685 11.986443 7.943724 19.23357-2.769887 4.207026-7.771883 5.831155-11.933941 7.638662 3.246869 3.372659 4.032202 8.353835 5.986472 12.54971.963828 2.069191 2.316767 4.408741 4.472245 5.12986.797493.266889 1.732643.289687 2.361735.93919.779368.804135.964975 1.70318 1.960235 2.394315 3.971403 2.758592 10.174914 2.545973 13.695032-1.053925 3.183317-3.255693 2.355081-8.407609-.303534-11.708403 4.232034-1.762406 11.942201-4.0291 10.260262-10.616316 9.170248-.608367 31.435343-15.467393 19.127435-26.325322 6.754597-3.814003 12.960173-13.13503 8.621455-21.351579-3.340934-6.327018-11.110752-9.155244-17.485646-9.4907752" fill="#191847" transform="matrix(-.8480481 -.52991926 -.52991926 .8480481 762.19735410928 185.38561375472)"/><g transform="translate(0 482)"><path d="m242.545485 244.194159c59.733476 16.704439 111.269714 25.056659 154.608714 25.056659s83.594267-12.86227 120.765801-38.58681c-58.45464-17.145586-106.59464-25.718379-144.42-25.718379s-81.476865 13.082843-130.954515 39.24853z" fill="#1f28cf"/><path d="m448.86442 293.328346c-.575973-.865718-1.062384-1.807445-1.448194-2.827559-7.984421-21.111454-135.875182-248.8619063-148.616226-290.500787h143.986957c9.687196 31.658629 53.288317 230.331619 59.424431 269.969809 19.360566 62.524952 59.222036 265.020444 64.31068 279.048713 5.353168 14.757501-24.76733 30.131001-32.793733 11.988484-12.771364-28.867808-43.2017-108.744514-56.751068-157.516674-12.702504-45.723795-23.045734-86.859461-28.112847-110.161986z" fill="#784931"/><path d="m331.063084 321.134683c-58.469554 14.775116-272.3388525 41.485911-287.0155004 45.675432-15.0976918 4.309709-28.3354786-26.804264-9.6739162-33.544078 29.6936967-10.724182 111.5132716-35.502863 161.1207756-45.614553 39.901272-8.133231 76.311672-14.769937 100.756656-18.656319-2.070922-68.653337-11.537637-233.4108152-5.332727-268.995165h127.401628c-5.950091 34.1229987-56.24882 283.104769-65.597557 308.02714-2.966831 8.897454-11.819235 12.829472-21.659359 13.107543z" fill="#915b3c"/><path d="m7.85951905 60.4263527c-3.57847718 9.0255805-5.36771577 15.6381886-5.36771577 19.8378244 0 4.5082155.7485731 11.0868231 2.2457193 19.7358229h140.54222042c3.652194-12.1137319 1.543936-18.6535459-6.324775-19.6194421-7.86871-.9658962-14.405382-1.8380232-19.610014-2.6163808l-66.7226682-29.8431444c-.5041539-.2254937-1.09565.0004051-1.3211436.5045589-.0041813.0093485-.0082187.0187606-.0121109.0282331l-4.7839757 11.6429129c-7.284368 3.4098928-13.2036732 5.1148392-17.7579157 5.1148392-4.2166214 0-10.2640265-1.9470088-18.1422151-5.8410264l-.0000026.0000053c-.99020996-.4894393-2.18970265-.0834845-2.67914193.9067255-.02410529.0487686-.04621075.0985005-.06626122.1490715z" fill="#e4e4e4" transform="matrix(.17364818 .98480775 -.98480775 .17364818 96.85165 307.420435)"/><path d="m7.85951905 60.4263527c-3.57847718 9.0255805-5.36771577 15.6381886-5.36771577 19.8378244 0 4.5082155.7485731 11.0868231 2.2457193 19.7358229h140.54222042c3.652194-12.1137319 1.543936-18.6535459-6.324775-19.6194421-7.86871-.9658962-14.405382-1.8380232-19.610014-2.6163808l-66.7226682-29.8431444c-.5041539-.2254937-1.09565.0004051-1.3211436.5045589-.0041813.0093485-.0082187.0187606-.0121109.0282331l-4.7839757 11.6429129c-7.284368 3.4098928-13.2036732 5.1148392-17.7579157 5.1148392-4.2166214 0-10.2640265-1.9470088-18.1422151-5.8410264l-.0000026.0000053c-.99020996-.4894393-2.18970265-.0834845-2.67914193.9067255-.02410529.0487686-.04621075.0985005-.06626122.1490715z" fill="#e4e4e4" transform="translate(517.92 495.41841)"/><path d="m291.33 0c56.14163-16.0593713 109.26163-16.0593713 159.36 0 17.43 79.5095966 59.78226 111.067017 67.23 232.968455-84.66 42.057783-189.24-29.995141-276.39 11.019662-24.9-57.369461 9.96-195.5304255 49.8-243.988117z" fill="#2b44ff"/></g><g transform="matrix(.93358043 .35836795 -.35836795 .93358043 199.947641 155.592916)"><path d="m482.07908 221.614801 70.377137 68.718106c20.477153 8.742524 37.255263 18.396036 50.33433 28.960536 2.941286 3.551088 6.143355 10.355157-7.695251 7.310434-13.838606-3.044724-28.531551-5.624377-31.132491-1.119874s5.062943 11.407003.256083 17.302238c-3.204574 3.930157-13.981808-8.570903-32.331701-37.503179l-73.182915-43.186019zm-312.376571 9.691346 51.916957.204351c-32.056325 103.577302-49.361978 158.53477-51.916957 164.872403-5.748704 14.259675 6.416326 35.976913 11.618575 47.647595-16.943553 7.58862-15.138199-20.515138-36.512035-10.56224-19.509047 9.084544-34.34953 25.54513-56.8894146 11.6247-2.7711464-1.711435-5.8078713-8.155297 1.52924-13.190835 18.2794196-12.54536 44.6211716-34.502 48.1803576-41.729198 4.853585-9.855576 15.544677-62.811168 32.073277-158.866776z" fill="#915b3c"/><path d="m303.127918 22.9480682 21.07951-5.546398c44.905517 88.9029108 116.557436 166.9835058 214.955757 234.2417858l-61.996342 90.433077c-101.179644-99.172386-167.442356-204.826782-174.038925-319.1284648z" fill="#191847" transform="matrix(.9961947 .08715574 -.08715574 .9961947 17.267881 -36.021292)"/><path d="m223.59375 283.475936h191.296875c-44.31909-107.857255-66.478635-199.4807143-66.478635-274.87037671l-57.704817-8.60555929c-45.350564 73.003525-58.157683 162.885646-67.113423 283.475936z" fill="#dde3e9"/><path d="m289.485424.04083015c.007576-.01361242.015152-.02722247.022727-.04083015h3.766733c4.507223.15534764 11.372301.43523725 20.595236.83966884l13.943554 39.88358906c1.474919 48.6274193 10.088221 146.6247901 25.839907 293.9921121h-125.398941c.328733 10.178053.870759 20.451183 1.626081 30.819389h-93.240096c13.947074-157.493353 64.880043-279.3382727 152.798907-365.534759l.045892.04083013z" fill="#2f3676"/><path d="m236.537915 204.48338c3.568838 63.445871 12.504116 107.18314 26.805835 131.211807h-35.056814c-1.534775-45.647447 1.215552-89.384665 8.250977-131.21179z" fill="#000" fill-opacity=".1"/><path d="m256.16614 258.609626 61.83386-28.772132v28.772132z" fill="#fff" fill-opacity=".2"/></g></g></svg>

<?xml version="1.0" encoding="UTF-8"?>
<svg width="696px" height="962px" viewBox="0 0 696 962" version="1.1" xmlns="http://www.w3.org/2000/svg" xmlns:xlink="http://www.w3.org/1999/xlink">
    <!-- Generator: Sketch 52.4 (67378) - http://www.bohemiancoding.com/sketch -->
    <title>hero-1</title>
    <desc>Created with Sketch.</desc>
    <g id="Sited" stroke="none" stroke-width="1" fill="none" fill-rule="evenodd">
        <g id="Artboard" transform="translate(0.000000, -12.000000)">
            <g id="hero-1" transform="translate(356.081138, 457.511076) rotate(-8.000000) translate(-356.081138, -457.511076) translate(-40.918862, -80.988924)">
                <g id="Head/Front/Rad" transform="translate(541.237150, 199.908269) rotate(32.000000) translate(-541.237150, -199.908269) translate(371.955607, 70.501292)">
                    <g id="Head" stroke-width="1" transform="translate(134.602941, 77.201923)" fill="#915B3C">
                        <path d="M20.5949327,85.8936811 C9.10904055,72.4238111 1.33514849,55.9162997 2.63417042,37.4191592 C6.3770143,-15.8762532 80.6334698,-4.15194148 95.0778877,22.747006 C109.522306,49.6459535 107.805933,117.877365 89.1378101,122.684957 C81.6929883,124.602218 65.8333044,119.905696 49.6918463,110.185339 L59.8235294,181.798077 L0,181.798077 L20.5949327,85.8936811 Z"></path>
                    </g>
                    <path d="M237.815026,96.8801978 C239.747271,94.9671248 240.801264,92.2365353 241.713012,89.6437267 C242.659863,86.9503082 243.57987,84.2291354 244.208504,81.4256904 C245.464623,75.8242524 245.476554,69.3824995 241.476931,65.0329843 C238.269294,61.5450954 233.456348,59.9806874 229.014387,59.6406957 C226.054992,59.4139519 223.015526,59.8280381 220.178646,60.7597938 C217.36402,61.6841154 214.937816,63.5263154 212.209225,64.6696987 C212.105065,58.6333587 211.070114,52.3172441 208.004953,47.1630984 C205.055423,42.2039771 200.352832,39.4211002 194.997287,38.6848644 C189.500416,37.9292997 184.072372,39.2144288 179.151365,41.8731542 C177.919336,42.5390126 176.698777,43.2365904 175.530758,44.0261047 C174.552705,44.6872548 173.535879,45.48346 172.388279,45.752331 C171.108987,46.0524257 170.474847,45.3142075 169.643399,44.3817083 C168.668558,43.2883822 167.570285,42.3254027 166.408002,41.4717062 C161.268809,37.6975998 154.525912,36.14583 148.572019,38.4080636 C145.828745,39.4503414 143.161183,41.2204296 141.30006,43.6595976 C139.641065,45.8338596 138.457674,49.2828427 136.16798,50.7976893 C135.196351,51.4407494 134.510131,50.5887876 133.625456,49.9591091 C132.296607,49.0129805 131.029245,47.968968 129.684337,47.0486114 C127.795224,45.7555525 125.749871,44.7883602 123.55952,44.2820898 C120.35303,43.5408979 115.921853,43.7146109 115.005057,47.9104855 C114.660915,49.4865404 114.924757,51.1721262 115.03603,52.7600759 C115.1886,54.9405331 115.347823,57.1202468 115.537331,59.2974825 C115.681182,60.9506055 115.863119,62.5472285 116.175371,64.1706146 C116.341936,65.035958 116.863197,66.6491841 116.491753,67.5157665 C116.027619,68.5989325 113.885447,67.9831312 112.970258,68.0207979 C111.162593,68.0953879 109.347356,68.4120858 107.675971,69.183758 C106.380619,69.781965 105.018733,70.6616812 104.472006,72.1450562 C104.135893,73.0562439 104.224453,73.9922124 104.383217,74.9296677 C104.573642,76.0547132 104.355915,76.6514334 104.213669,77.786639 C101.785859,76.5922075 93.3727249,73.9384382 92.3141429,78.2854753 C91.9617411,79.7329182 92.7642812,81.3684469 93.3766252,82.5891461 C94.4505789,84.7302019 95.8585802,86.6871368 97.2980131,88.5533742 C100.300541,92.446676 103.885128,95.8047138 107.741817,98.6765535 C103.223228,100.683546 102.043737,106.603416 105.955948,110.130459 C107.683313,111.68768 110.005815,112.034363 112.184696,111.934744 C112.982188,111.898316 114.131853,111.592026 114.75934,111.730799 C115.097058,111.805389 115.458637,112.091358 115.926441,112.123326 C119.001468,112.333714 122.472718,111.593513 125.478687,110.911795 C130.834919,109.697043 135.905743,107.161726 140.046694,103.300391 C141.108947,102.309905 141.98651,101.739701 143.416307,101.754321 C144.669215,101.766959 145.898491,102.110173 147.150252,102.141892 C150.462278,102.226394 153.448517,100.608708 156.524003,99.5319846 C156.712363,103.683006 157.895525,108.254804 159.595129,111.989262 C160.981105,115.034567 163.875343,115.477151 166.719336,115.744287 C175.813872,116.599222 184.940529,115.645164 194.046537,115.657802 C185.231673,117.648439 176.122912,118.468929 167.386284,120.811452 C163.437135,121.870085 166.45274,124.529306 168.141332,126.372746 C170.921773,129.408386 172.989152,133.169606 174.423078,137.132046 C178.735182,131.516236 186.357019,127.815976 193.109552,129.541211 C200.570559,131.447097 205.824237,141.527654 201.053276,148.774781 C198.283389,152.981807 193.281393,154.605936 189.119335,156.413443 C192.366204,159.786102 193.151537,164.767278 195.105807,168.963153 C196.069635,171.032344 197.422574,173.371894 199.578052,174.093013 C200.375545,174.359902 201.310695,174.3827 201.939787,175.032203 C202.719155,175.836338 202.904762,176.735383 203.900022,177.426518 C207.871425,180.18511 214.074936,179.972491 217.595054,176.372593 C220.778371,173.1169 219.950135,167.964984 217.29152,164.66419 C221.523554,162.901784 229.233721,160.63509 227.551782,154.047874 C236.72203,153.439507 258.987125,138.580481 246.679217,127.722552 C253.433814,123.908549 259.63939,114.587522 255.300672,106.370973 C251.959738,100.043955 244.18992,97.215729 237.815026,96.8801978" id="hair" fill="#191847" transform="translate(174.485294, 108.331731) scale(-1, 1) translate(-174.485294, -108.331731) "></path>
                </g>
                <g id="Bottom/Standing/Skirt" transform="translate(0.000000, 482.000000)">
                    <path d="M242.545485,244.194159 C302.278961,260.898598 353.815199,269.250818 397.154199,269.250818 C440.493199,269.250818 480.748466,256.388548 517.92,230.664008 C459.46536,213.518422 411.32536,204.945629 373.5,204.945629 C335.67464,204.945629 292.023135,218.028472 242.545485,244.194159 Z" id="Skirt-Shadow" fill="#1F28CF"></path>
                    <path d="M448.86442,293.328346 C448.288447,292.462628 447.802036,291.520901 447.416226,290.500787 C439.431805,269.389333 311.541044,41.6388807 298.8,0 L442.786957,0 C452.474153,31.658629 496.075274,230.331619 502.211388,269.969809 C521.571954,332.494761 561.433424,534.990253 566.522068,549.018522 C571.875236,563.776023 541.754738,579.149523 533.728335,561.007006 C520.956971,532.139198 490.526635,452.262492 476.977267,403.490332 C464.274763,357.766537 453.931533,316.630871 448.86442,293.328346 Z" id="Leg" fill="#784931"></path>
                    <path d="M331.063084,321.134683 C272.59353,335.909799 58.7242315,362.620594 44.0475836,366.810115 C28.9498918,371.119824 15.712105,340.005851 34.3736674,333.266037 C64.0673641,322.541855 145.886939,297.763174 195.494443,287.651484 C235.395715,279.518253 271.806115,272.881547 296.251099,268.995165 C294.180177,200.341828 284.713462,35.5843498 290.918372,1.42108547e-14 L418.32,1.42108547e-14 C412.369909,34.1229987 362.07118,283.104769 352.722443,308.02714 C349.755612,316.924594 340.903208,320.856612 331.063084,321.134683 Z" id="Leg" fill="#915B3C"></path>
                    <g id="Accessories/Shoe/Flat-Sneaker" transform="translate(61.005000, 390.857741) rotate(80.000000) translate(-61.005000, -390.857741) translate(-14.940000, 341.066946)" fill="#E4E4E4">
                        <path d="M7.85951905,60.4263527 C4.28104187,69.4519332 2.49180328,76.0645413 2.49180328,80.2641771 C2.49180328,84.7723926 3.24037638,91.3510002 4.73752258,100 C9.95022193,100 56.7976288,100 145.279743,100 C148.931937,87.8862681 146.823679,81.3464541 138.954968,80.3805579 C131.086258,79.4146617 124.549586,78.5425347 119.344954,77.7641771 L52.6222858,47.9210327 C52.1181319,47.695539 51.5266358,47.9214378 51.3011422,48.4255916 C51.2969609,48.4349401 51.2929235,48.4443522 51.2890313,48.4538247 L46.5050556,60.0967376 C39.2206876,63.5066304 33.3013824,65.2115768 28.7471399,65.2115768 C24.5305185,65.2115768 18.4831134,63.264568 10.6049248,59.3705504 L10.6049222,59.3705557 C9.61471224,58.8811164 8.41521955,59.2870712 7.92578027,60.2772812 C7.90167498,60.3260498 7.87956952,60.3757817 7.85951905,60.4263527 Z" id="shoe"></path>
                    </g>
                    <g id="Accessories/Shoe/Flat-Sneaker" transform="translate(517.920000, 495.418410)" fill="#E4E4E4">
                        <path d="M7.85951905,60.4263527 C4.28104187,69.4519332 2.49180328,76.0645413 2.49180328,80.2641771 C2.49180328,84.7723926 3.24037638,91.3510002 4.73752258,100 C9.95022193,100 56.7976288,100 145.279743,100 C148.931937,87.8862681 146.823679,81.3464541 138.954968,80.3805579 C131.086258,79.4146617 124.549586,78.5425347 119.344954,77.7641771 L52.6222858,47.9210327 C52.1181319,47.695539 51.5266358,47.9214378 51.3011422,48.4255916 C51.2969609,48.4349401 51.2929235,48.4443522 51.2890313,48.4538247 L46.5050556,60.0967376 C39.2206876,63.5066304 33.3013824,65.2115768 28.7471399,65.2115768 C24.5305185,65.2115768 18.4831134,63.264568 10.6049248,59.3705504 L10.6049222,59.3705557 C9.61471224,58.8811164 8.41521955,59.2870712 7.92578027,60.2772812 C7.90167498,60.3260498 7.87956952,60.3757817 7.85951905,60.4263527 Z" id="shoe"></path>
                    </g>
                    <path d="M291.33,1.24344979e-14 C347.47163,-16.0593713 400.59163,-16.0593713 450.69,1.24344979e-14 C468.12,79.5095966 510.47226,111.067017 517.92,232.968455 C433.26,275.026238 328.68,202.973314 241.53,243.988117 C216.63,186.618656 251.49,48.4576915 291.33,1.24344979e-14 Z" id="Skirt" fill="#2B44FF"></path>
                </g>
                <g id="Body/Jacket" transform="translate(413.696262, 486.551680) rotate(21.000000) translate(-413.696262, -486.551680) translate(95.539720, 254.175711)">
                    <path d="M482.07908,221.614801 L552.456217,290.332907 C572.93337,299.075431 589.71148,308.728943 602.790547,319.293443 C605.731833,322.844531 608.933902,329.6486 595.095296,326.603877 C581.25669,323.559153 566.563745,320.9795 563.962805,325.484003 C561.361865,329.988506 569.025748,336.891006 564.218888,342.786241 C561.014314,346.716398 550.23708,334.215338 531.887187,305.283062 L458.704272,262.097043 L482.07908,221.614801 Z M169.702509,231.306147 L221.619466,231.510498 C189.563141,335.0878 172.257488,390.045268 169.702509,396.382901 C163.953805,410.642576 176.118835,432.359814 181.321084,444.030496 C164.377531,451.619116 166.182885,423.515358 144.809049,433.468256 C125.300002,442.5528 110.459519,459.013386 87.9196344,445.092956 C85.148488,443.381521 82.1117631,436.937659 89.4488744,431.902121 C107.728294,419.356761 134.070046,397.400121 137.629232,390.172923 C142.482817,380.317347 153.173909,327.361755 169.702509,231.306147 Z" id="Skin" fill="#915B3C"></path>
                    <path d="M303.127918,22.9480682 L324.207428,17.4016702 C369.112945,106.304581 440.764864,184.385176 539.163185,251.643456 L477.166843,342.076533 C375.987199,242.904147 309.724487,137.249751 303.127918,22.9480682 Z" id="Coat-Back" fill="#191847" transform="translate(421.145551, 179.739101) rotate(5.000000) translate(-421.145551, -179.739101) "></path>
                    <path d="M223.59375,283.475936 L414.890625,283.475936 C370.571535,175.618681 348.41199,83.9952217 348.41199,8.60555929 L290.707173,0 C245.356609,73.003525 232.54949,162.885646 223.59375,283.475936 Z" id="Shirt" fill="#DDE3E9"></path>
                    <path d="M289.485424,0.0408301503 C289.493,0.0272177339 289.500576,0.0136076836 289.508151,2.02669279e-14 L293.274884,-4.26371004e-14 C297.782107,0.155347637 304.647185,0.435237249 313.87012,0.839668838 L327.813674,40.7232579 C329.288593,89.3506772 337.901895,187.348048 353.653581,334.71537 L228.25464,334.71537 C228.583373,344.893423 229.125399,355.166553 229.880721,365.534759 L136.640625,365.534759 C150.587699,208.041406 201.520668,86.1964863 289.439532,1.42108547e-14 L289.485424,0.0408301345 Z" id="Coat-Front" fill="#2F3676"></path>
                    <path d="M236.537915,204.48338 C240.106753,267.929251 249.042031,311.66652 263.34375,335.695187 L228.286936,335.695187 C226.752161,290.04774 229.502488,246.310522 236.537913,204.483397 Z" id="Shade" fill-opacity="0.1" fill="#000000"></path>
                    <polygon id="Light" fill-opacity="0.2" fill="#FFFFFF" points="256.16614 258.609626 318 229.837494 318 258.609626"></polygon>
                </g>
            </g>
        </g>
    </g>
</svg>
